X:1
T:Christofo Columbo
M:2/4
L:1/8
K:C
 G| GG GG| GG GG| GG GG| cC z G| GG GG| GG GG| GG GG| cC| z2| BB BB|\
 BB BB| AA AA| Bd z d| cc cc| cc cc| GG GF| EC| z A| Ge ee| dG z G|\
 Ge ee| dG z G| c/2c/2 c/2c/2 c/2c/2 c/2c/2| c/2c/2 c/2c/2| c/2c/2 c/2c/2|\
 GG GG| EC z||
